docs/reference/data-models/digitalocean/img/digitalocean_droplet_size.svg

<svg xmlns="http://www.w3.org/2000/svg" xmlns:xlink="http://www.w3.org/1999/xlink" width="385" height="1361" preserveAspectRatio="none" style="width:385px;height:1361px;background:#00000000"><a xlink:actuate="onRequest" xlink:href="#a" xlink:show="new" xlink:title="#digitalocean_resource" xlink:type="simple" target="_top"><rect id="a" width="223" height="70.594" x="7" y="504" fill="#3D176E" rx="2.5" ry="2.5" style="stroke:#000d19;stroke-width:1.5"/><circle cx="22" cy="523.894" r="11" fill="#E98DF7" style="stroke:#000d19;stroke-width:1"/><path d="M24.969 529.535q-.578.297-1.219.438-.64.156-1.344.156-2.5 0-3.828-1.64-1.312-1.657-1.312-4.782t1.312-4.781q1.328-1.657 3.828-1.657.703 0 1.344.157.656.156 1.219.453v2.719q-.625-.578-1.219-.844-.594-.281-1.219-.281-1.343 0-2.031 1.078-.688 1.062-.688 3.156 0 2.094.688 3.172.688 1.062 2.031 1.062.625 0 1.219-.265.594-.282 1.219-.86v2.72Z"/><text x="41" y="529.78" fill="#D9B8FF" font-family="Helvetica" font-size="17" textLength="181">digitalocean_resource</text><path d="M8 543.789h221" style="stroke:#000d19;stroke-width:1.5"/><text x="18" y="563" fill="#D9B8FF" font-family="sans-serif" font-size="11" font-weight="bold" textLength="21">urn</text><text x="39" y="563" fill="#D9B8FF" font-family="sans-serif" font-size="11" textLength="41">: string</text></a><a xlink:actuate="onRequest" xlink:href="#b" xlink:show="new" xlink:title="#resource" xlink:type="simple" target="_top"><rect id="b" width="195" height="275.836" x="62" y="7" fill="#3D176E" rx="2.5" ry="2.5" style="stroke:#000d19;stroke-width:1.5"/><circle cx="114.75" cy="26.895" r="11" fill="#E98DF7" style="stroke:#000d19;stroke-width:1"/><path d="M117.719 32.535q-.578.297-1.219.438-.64.156-1.344.156-2.5 0-3.828-1.64-1.312-1.657-1.312-4.782t1.312-4.781q1.328-1.656 3.828-1.656.703 0 1.344.156.656.156 1.219.453v2.719q-.625-.578-1.219-.844-.594-.281-1.219-.281-1.344 0-2.031 1.078-.688 1.062-.688 3.156 0 2.094.688 3.172.688 1.062 2.031 1.062.625 0 1.219-.265.594-.281 1.219-.86v2.72Z"/><text x="140.25" y="32.78" fill="#D9B8FF" font-family="Helvetica" font-size="17" textLength="71">resource</text><path d="M63 46.789h193" style="stroke:#000d19;stroke-width:1.5"/><text x="73" y="65.999" fill="#D9B8FF" font-family="sans-serif" font-size="11" font-weight="bold" textLength="12">id</text><text x="85" y="65.999" fill="#D9B8FF" font-family="sans-serif" font-size="11" textLength="41">: string</text><text x="73" y="88.804" fill="#D9B8FF" font-family="sans-serif" font-size="11" font-weight="bold" textLength="28">tags</text><text x="101" y="88.804" fill="#D9B8FF" font-family="sans-serif" font-size="11" textLength="145">: dictionary[string, string]</text><text x="73" y="111.609" fill="#D9B8FF" font-family="sans-serif" font-size="11" font-weight="bold" textLength="35">name</text><text x="108" y="111.609" fill="#D9B8FF" font-family="sans-serif" font-size="11" textLength="41">: string</text><text x="73" y="134.414" fill="#D9B8FF" font-family="sans-serif" font-size="11" font-weight="bold" textLength="35">ctime</text><text x="108" y="134.414" fill="#D9B8FF" font-family="sans-serif" font-size="11" textLength="58">: datetime</text><text x="73" y="157.218" fill="#D9B8FF" font-family="sans-serif" font-size="11" font-weight="bold" textLength="24">age</text><text x="97" y="157.218" fill="#D9B8FF" font-family="sans-serif" font-size="11" textLength="55">: duration</text><text x="73" y="180.023" fill="#D9B8FF" font-family="sans-serif" font-size="11" font-weight="bold" textLength="39">mtime</text><text x="112" y="180.023" fill="#D9B8FF" font-family="sans-serif" font-size="11" textLength="58">: datetime</text><text x="73" y="202.828" fill="#D9B8FF" font-family="sans-serif" font-size="11" font-weight="bold" textLength="75">last_update</text><text x="148" y="202.828" fill="#D9B8FF" font-family="sans-serif" font-size="11" textLength="55">: duration</text><text x="73" y="225.632" fill="#D9B8FF" font-family="sans-serif" font-size="11" font-weight="bold" textLength="36">atime</text><text x="109" y="225.632" fill="#D9B8FF" font-family="sans-serif" font-size="11" textLength="58">: datetime</text><text x="73" y="248.437" fill="#D9B8FF" font-family="sans-serif" font-size="11" font-weight="bold" textLength="74">last_access</text><text x="147" y="248.437" fill="#D9B8FF" font-family="sans-serif" font-size="11" textLength="55">: duration</text><text x="73" y="271.242" fill="#D9B8FF" font-family="sans-serif" font-size="11" font-weight="bold" textLength="27">kind</text><text x="100" y="271.242" fill="#D9B8FF" font-family="sans-serif" font-size="11" textLength="41">: string</text></a><a xlink:actuate="onRequest" xlink:href="#c" xlink:show="new" xlink:title="#quota" xlink:type="simple" target="_top"><rect id="c" width="134" height="116.203" x="215.5" y="635" fill="#3D176E" rx="2.5" ry="2.5" style="stroke:#000d19;stroke-width:1.5"/><circle cx="250.3" cy="654.894" r="11" fill="#E98DF7" style="stroke:#000d19;stroke-width:1"/><path d="M253.269 660.535q-.578.297-1.219.438-.64.156-1.344.156-2.5 0-3.828-1.64-1.312-1.657-1.312-4.782t1.312-4.781q1.328-1.657 3.828-1.657.703 0 1.344.157.656.156 1.219.453v2.719q-.625-.578-1.219-.844-.594-.281-1.219-.281-1.343 0-2.031 1.078-.688 1.062-.688 3.156 0 2.094.688 3.172.688 1.062 2.031 1.062.625 0 1.219-.265.594-.282 1.219-.86v2.72Z"/><text x="273.7" y="660.78" fill="#D9B8FF" font-family="Helvetica" font-size="17" textLength="48">quota</text><path d="M216.5 674.789h132" style="stroke:#000d19;stroke-width:1.5"/><text x="226.5" y="694" fill="#D9B8FF" font-family="sans-serif" font-size="11" font-weight="bold" textLength="37">quota</text><text x="263.5" y="694" fill="#D9B8FF" font-family="sans-serif" font-size="11" textLength="46">: double</text><text x="226.5" y="716.804" fill="#D9B8FF" font-family="sans-serif" font-size="11" font-weight="bold" textLength="39">usage</text><text x="265.5" y="716.804" fill="#D9B8FF" font-family="sans-serif" font-size="11" textLength="46">: double</text><text x="226.5" y="739.609" fill="#D9B8FF" font-family="sans-serif" font-size="11" font-weight="bold" textLength="71">quota_type</text><text x="297.5" y="739.609" fill="#D9B8FF" font-family="sans-serif" font-size="11" textLength="41">: string</text></a><a xlink:actuate="onRequest" xlink:href="#d" xlink:show="new" xlink:title="#phantom_resource" xlink:type="simple" target="_top"><rect id="d" width="198" height="39.789" x="180.5" y="404" fill="#3D176E" rx="2.5" ry="2.5" style="stroke:#000d19;stroke-width:1.5"/><circle cx="195.5" cy="423.894" r="11" fill="#E98DF7" style="stroke:#000d19;stroke-width:1"/><path d="M198.469 429.535q-.578.297-1.219.438-.64.156-1.344.156-2.5 0-3.828-1.64-1.312-1.657-1.312-4.782t1.312-4.781q1.328-1.656 3.828-1.656.703 0 1.344.156.656.156 1.219.453v2.719q-.625-.579-1.219-.844-.594-.281-1.219-.281-1.344 0-2.031 1.078-.688 1.062-.688 3.156 0 2.094.688 3.172.688 1.062 2.031 1.062.625 0 1.219-.265.594-.281 1.219-.86v2.72Z"/><text x="214.5" y="429.78" fill="#D9B8FF" font-family="Helvetica" font-size="17" textLength="156">phantom_resource</text></a><a xlink:actuate="onRequest" xlink:href="#e" xlink:show="new" xlink:title="#instance_type" xlink:type="simple" target="_top"><rect id="e" width="179" height="161.813" x="188" y="1033" fill="#3D176E" rx="2.5" ry="2.5" style="stroke:#000d19;stroke-width:1.5"/><circle cx="212.45" cy="1052.895" r="11" fill="#E98DF7" style="stroke:#000d19;stroke-width:1"/><path d="M215.419 1058.535q-.578.297-1.219.438-.64.156-1.344.156-2.5 0-3.828-1.64-1.312-1.657-1.312-4.782t1.312-4.781q1.328-1.656 3.828-1.656.703 0 1.344.156.656.156 1.219.453v2.719q-.625-.578-1.219-.844-.594-.281-1.219-.281-1.344 0-2.031 1.078-.688 1.062-.688 3.156 0 2.094.688 3.172.688 1.062 2.031 1.062.625 0 1.219-.265.594-.281 1.219-.86v2.72Z"/><text x="233.55" y="1058.78" fill="#D9B8FF" font-family="Helvetica" font-size="17" textLength="116">instance_type</text><path d="M189 1072.789h177" style="stroke:#000d19;stroke-width:1.5"/><text x="199" y="1091.999" fill="#D9B8FF" font-family="sans-serif" font-size="11" font-weight="bold" textLength="89">instance_type</text><text x="288" y="1091.999" fill="#D9B8FF" font-family="sans-serif" font-size="11" textLength="41">: string</text><text x="199" y="1114.804" fill="#D9B8FF" font-family="sans-serif" font-size="11" font-weight="bold" textLength="96">instance_cores</text><text x="295" y="1114.804" fill="#D9B8FF" font-family="sans-serif" font-size="11" textLength="46">: double</text><text x="199" y="1137.609" fill="#D9B8FF" font-family="sans-serif" font-size="11" font-weight="bold" textLength="111">instance_memory</text><text x="310" y="1137.609" fill="#D9B8FF" font-family="sans-serif" font-size="11" textLength="46">: double</text><text x="199" y="1160.414" fill="#D9B8FF" font-family="sans-serif" font-size="11" font-weight="bold" textLength="100">ondemand_cost</text><text x="299" y="1160.414" fill="#D9B8FF" font-family="sans-serif" font-size="11" textLength="46">: double</text><text x="199" y="1183.218" fill="#D9B8FF" font-family="sans-serif" font-size="11" font-weight="bold" textLength="80">reservations</text><text x="279" y="1183.218" fill="#D9B8FF" font-family="sans-serif" font-size="11" textLength="36">: int64</text></a><a xlink:actuate="onRequest" xlink:href="#f" xlink:show="new" xlink:title="#type" xlink:type="simple" target="_top"><rect id="f" width="79" height="39.789" x="242" y="872" fill="#3D176E" rx="2.5" ry="2.5" style="stroke:#000d19;stroke-width:1.5"/><circle cx="257" cy="891.894" r="11" fill="#E98DF7" style="stroke:#000d19;stroke-width:1"/><path d="M259.969 897.535q-.578.297-1.219.438-.64.156-1.344.156-2.5 0-3.828-1.64-1.312-1.657-1.312-4.782t1.312-4.781q1.328-1.657 3.828-1.657.703 0 1.344.157.656.156 1.219.453v2.719q-.625-.578-1.219-.844-.594-.281-1.219-.281-1.344 0-2.031 1.078-.688 1.062-.688 3.156 0 2.094.688 3.172.688 1.062 2.031 1.062.625 0 1.219-.265.594-.282 1.219-.86v2.72Z"/><text x="276" y="897.78" fill="#D9B8FF" font-family="Helvetica" font-size="17" textLength="37">type</text></a><a xlink:actuate="onRequest" xlink:href="#g" xlink:show="new" xlink:title="#digitalocean_droplet_size" xlink:type="simple" target="_top"><rect id="g" width="251" height="39.789" x="39" y="1316" fill="#3D176E" rx="2.5" ry="2.5" style="stroke:#000d19;stroke-width:1.5"/><circle cx="54" cy="1335.895" r="11" fill="#E98DF7" style="stroke:#000d19;stroke-width:1"/><path d="M56.969 1341.535q-.578.297-1.219.438-.64.156-1.344.156-2.5 0-3.828-1.64-1.312-1.657-1.312-4.782t1.312-4.781q1.328-1.656 3.828-1.656.703 0 1.344.156.656.156 1.219.453v2.719q-.625-.578-1.219-.844-.594-.281-1.219-.281-1.343 0-2.031 1.078-.688 1.062-.688 3.156 0 2.094.688 3.172.688 1.062 2.031 1.062.625 0 1.219-.265.594-.281 1.219-.86v2.72Z"/><text x="73" y="1341.78" fill="#D9B8FF" font-family="Helvetica" font-size="17" textLength="209">digitalocean_droplet_size</text></a><path fill="none" d="M143.09 303.1c-7.72 73.91-16.25 155.54-20.96 200.62m14.02-201.55 9.04-19.17 4.88 20.62-13.92-1.45zm143.79 162.08c.51 44.98 1.34 119.08 1.92 170.49m-8.92-170.46 6.78-20.08 7.22 19.92-14 .16zm-45.93-162.45c17.7 40.86 34.51 79.68 44.15 101.92m-50.66-99.33-1.53-21.14 14.38 15.57-12.85 5.57zm60.28 627.96c-.5 27.9-1.2 66.3-1.82 100.52m-5.17-100.89 7.36-19.87 6.64 20.12-14-.25zm8.32-160.74c-.19 36.53-.39 77.15-.51 100.44m-6.49-100.5 7.1-19.96 6.9 20.03-14-.07zM122.04 595.39c3.22 54.64 7.46 140.88 7.46 215.61v304c0 75.03 20.1 162.68 29.84 200.74m-44.31-720.28 5.78-20.39 8.2 19.54-13.98.85zm112.17 617.47c-19.89 38.73-40.83 79.49-52.77 102.74m46.59-106.03 15.36-14.59-2.91 20.99-12.45-6.4z" style="stroke:#ffaf37;stroke-width:2"/></svg>

<svg xmlns="http://www.w3.org/2000/svg" xmlns:xlink="http://www.w3.org/1999/xlink" width="385" height="1361" preserveAspectRatio="none" style="width:385px;height:1361px;background:#00000000"><a xlink:actuate="onRequest" xlink:href="#a" xlink:show="new" xlink:title="#digitalocean_resource" xlink:type="simple" target="_top"><rect id="a" width="223" height="70.594" x="7" y="504" fill="#3D176E" rx="2.5" ry="2.5" style="stroke:#000d19;stroke-width:1.5"/><circle cx="22" cy="523.894" r="11" fill="#E98DF7" style="stroke:#000d19;stroke-width:1"/><path d="M24.969 529.535q-.578.297-1.219.438-.64.156-1.344.156-2.5 0-3.828-1.64-1.312-1.657-1.312-4.782t1.312-4.781q1.328-1.657 3.828-1.657.703 0 1.344.157.656.156 1.219.453v2.719q-.625-.578-1.219-.844-.594-.281-1.219-.281-1.343 0-2.031 1.078-.688 1.062-.688 3.156 0 2.094.688 3.172.688 1.062 2.031 1.062.625 0 1.219-.265.594-.282 1.219-.86v2.72Z"/><text x="41" y="529.78" fill="#D9B8FF" font-family="Helvetica" font-size="17" textLength="181">digitalocean_resource</text><path d="M8 543.789h221" style="stroke:#000d19;stroke-width:1.5"/><text x="18" y="563" fill="#D9B8FF" font-family="sans-serif" font-size="11" font-weight="bold" textLength="21">urn</text><text x="39" y="563" fill="#D9B8FF" font-family="sans-serif" font-size="11" textLength="41">: string</text></a><a xlink:actuate="onRequest" xlink:href="#b" xlink:show="new" xlink:title="#resource" xlink:type="simple" target="_top"><rect id="b" width="195" height="275.836" x="62" y="7" fill="#3D176E" rx="2.5" ry="2.5" style="stroke:#000d19;stroke-width:1.5"/><circle cx="114.75" cy="26.895" r="11" fill="#E98DF7" style="stroke:#000d19;stroke-width:1"/><path d="M117.719 32.535q-.578.297-1.219.438-.64.156-1.344.156-2.5 0-3.828-1.64-1.312-1.657-1.312-4.782t1.312-4.781q1.328-1.656 3.828-1.656.703 0 1.344.156.656.156 1.219.453v2.719q-.625-.578-1.219-.844-.594-.281-1.219-.281-1.344 0-2.031 1.078-.688 1.062-.688 3.156 0 2.094.688 3.172.688 1.062 2.031 1.062.625 0 1.219-.265.594-.281 1.219-.86v2.72Z"/><text x="140.25" y="32.78" fill="#D9B8FF" font-family="Helvetica" font-size="17" textLength="71">resource</text><path d="M63 46.789h193" style="stroke:#000d19;stroke-width:1.5"/><text x="73" y="65.999" fill="#D9B8FF" font-family="sans-serif" font-size="11" font-weight="bold" textLength="12">id</text><text x="85" y="65.999" fill="#D9B8FF" font-family="sans-serif" font-size="11" textLength="41">: string</text><text x="73" y="88.804" fill="#D9B8FF" font-family="sans-serif" font-size="11" font-weight="bold" textLength="28">tags</text><text x="101" y="88.804" fill="#D9B8FF" font-family="sans-serif" font-size="11" textLength="145">: dictionary[string, string]</text><text x="73" y="111.609" fill="#D9B8FF" font-family="sans-serif" font-size="11" font-weight="bold" textLength="35">name</text><text x="108" y="111.609" fill="#D9B8FF" font-family="sans-serif" font-size="11" textLength="41">: string</text><text x="73" y="134.414" fill="#D9B8FF" font-family="sans-serif" font-size="11" font-weight="bold" textLength="35">ctime</text><text x="108" y="134.414" fill="#D9B8FF" font-family="sans-serif" font-size="11" textLength="58">: datetime</text><text x="73" y="157.218" fill="#D9B8FF" font-family="sans-serif" font-size="11" font-weight="bold" textLength="24">age</text><text x="97" y="157.218" fill="#D9B8FF" font-family="sans-serif" font-size="11" textLength="55">: duration</text><text x="73" y="180.023" fill="#D9B8FF" font-family="sans-serif" font-size="11" font-weight="bold" textLength="39">mtime</text><text x="112" y="180.023" fill="#D9B8FF" font-family="sans-serif" font-size="11" textLength="58">: datetime</text><text x="73" y="202.828" fill="#D9B8FF" font-family="sans-serif" font-size="11" font-weight="bold" textLength="75">last_update</text><text x="148" y="202.828" fill="#D9B8FF" font-family="sans-serif" font-size="11" textLength="55">: duration</text><text x="73" y="225.632" fill="#D9B8FF" font-family="sans-serif" font-size="11" font-weight="bold" textLength="36">atime</text><text x="109" y="225.632" fill="#D9B8FF" font-family="sans-serif" font-size="11" textLength="58">: datetime</text><text x="73" y="248.437" fill="#D9B8FF" font-family="sans-serif" font-size="11" font-weight="bold" textLength="74">last_access</text><text x="147" y="248.437" fill="#D9B8FF" font-family="sans-serif" font-size="11" textLength="55">: duration</text><text x="73" y="271.242" fill="#D9B8FF" font-family="sans-serif" font-size="11" font-weight="bold" textLength="27">kind</text><text x="100" y="271.242" fill="#D9B8FF" font-family="sans-serif" font-size="11" textLength="41">: string</text></a><a xlink:actuate="onRequest" xlink:href="#c" xlink:show="new" xlink:title="#phantom_resource" xlink:type="simple" target="_top"><rect id="c" width="198" height="39.789" x="180.5" y="404" fill="#3D176E" rx="2.5" ry="2.5" style="stroke:#000d19;stroke-width:1.5"/><circle cx="195.5" cy="423.894" r="11" fill="#E98DF7" style="stroke:#000d19;stroke-width:1"/><path d="M198.469 429.535q-.578.297-1.219.438-.64.156-1.344.156-2.5 0-3.828-1.64-1.312-1.657-1.312-4.782t1.312-4.781q1.328-1.656 3.828-1.656.703 0 1.344.156.656.156 1.219.453v2.719q-.625-.579-1.219-.844-.594-.281-1.219-.281-1.344 0-2.031 1.078-.688 1.062-.688 3.156 0 2.094.688 3.172.688 1.062 2.031 1.062.625 0 1.219-.265.594-.281 1.219-.86v2.72Z"/><text x="214.5" y="429.78" fill="#D9B8FF" font-family="Helvetica" font-size="17" textLength="156">phantom_resource</text></a><a xlink:actuate="onRequest" xlink:href="#d" xlink:show="new" xlink:title="#instance_type" xlink:type="simple" target="_top"><rect id="d" width="179" height="161.813" x="188" y="1033" fill="#3D176E" rx="2.5" ry="2.5" style="stroke:#000d19;stroke-width:1.5"/><circle cx="212.45" cy="1052.895" r="11" fill="#E98DF7" style="stroke:#000d19;stroke-width:1"/><path d="M215.419 1058.535q-.578.297-1.219.438-.64.156-1.344.156-2.5 0-3.828-1.64-1.312-1.657-1.312-4.782t1.312-4.781q1.328-1.656 3.828-1.656.703 0 1.344.156.656.156 1.219.453v2.719q-.625-.578-1.219-.844-.594-.281-1.219-.281-1.344 0-2.031 1.078-.688 1.062-.688 3.156 0 2.094.688 3.172.688 1.062 2.031 1.062.625 0 1.219-.265.594-.281 1.219-.86v2.72Z"/><text x="233.55" y="1058.78" fill="#D9B8FF" font-family="Helvetica" font-size="17" textLength="116">instance_type</text><path d="M189 1072.789h177" style="stroke:#000d19;stroke-width:1.5"/><text x="199" y="1091.999" fill="#D9B8FF" font-family="sans-serif" font-size="11" font-weight="bold" textLength="89">instance_type</text><text x="288" y="1091.999" fill="#D9B8FF" font-family="sans-serif" font-size="11" textLength="41">: string</text><text x="199" y="1114.804" fill="#D9B8FF" font-family="sans-serif" font-size="11" font-weight="bold" textLength="96">instance_cores</text><text x="295" y="1114.804" fill="#D9B8FF" font-family="sans-serif" font-size="11" textLength="46">: double</text><text x="199" y="1137.609" fill="#D9B8FF" font-family="sans-serif" font-size="11" font-weight="bold" textLength="111">instance_memory</text><text x="310" y="1137.609" fill="#D9B8FF" font-family="sans-serif" font-size="11" textLength="46">: double</text><text x="199" y="1160.414" fill="#D9B8FF" font-family="sans-serif" font-size="11" font-weight="bold" textLength="100">ondemand_cost</text><text x="299" y="1160.414" fill="#D9B8FF" font-family="sans-serif" font-size="11" textLength="46">: double</text><text x="199" y="1183.218" fill="#D9B8FF" font-family="sans-serif" font-size="11" font-weight="bold" textLength="80">reservations</text><text x="279" y="1183.218" fill="#D9B8FF" font-family="sans-serif" font-size="11" textLength="36">: int64</text></a><a xlink:actuate="onRequest" xlink:href="#e" xlink:show="new" xlink:title="#type" xlink:type="simple" target="_top"><rect id="e" width="79" height="39.789" x="242" y="872" fill="#3D176E" rx="2.5" ry="2.5" style="stroke:#000d19;stroke-width:1.5"/><circle cx="257" cy="891.894" r="11" fill="#E98DF7" style="stroke:#000d19;stroke-width:1"/><path d="M259.969 897.535q-.578.297-1.219.438-.64.156-1.344.156-2.5 0-3.828-1.64-1.312-1.657-1.312-4.782t1.312-4.781q1.328-1.657 3.828-1.657.703 0 1.344.157.656.156 1.219.453v2.719q-.625-.578-1.219-.844-.594-.281-1.219-.281-1.344 0-2.031 1.078-.688 1.062-.688 3.156 0 2.094.688 3.172.688 1.062 2.031 1.062.625 0 1.219-.265.594-.282 1.219-.86v2.72Z"/><text x="276" y="897.78" fill="#D9B8FF" font-family="Helvetica" font-size="17" textLength="37">type</text></a><a xlink:actuate="onRequest" xlink:href="#f" xlink:show="new" xlink:title="#quota" xlink:type="simple" target="_top"><rect id="f" width="134" height="116.203" x="215.5" y="635" fill="#3D176E" rx="2.5" ry="2.5" style="stroke:#000d19;stroke-width:1.5"/><circle cx="250.3" cy="654.894" r="11" fill="#E98DF7" style="stroke:#000d19;stroke-width:1"/><path d="M253.269 660.535q-.578.297-1.219.438-.64.156-1.344.156-2.5 0-3.828-1.64-1.312-1.657-1.312-4.782t1.312-4.781q1.328-1.657 3.828-1.657.703 0 1.344.157.656.156 1.219.453v2.719q-.625-.578-1.219-.844-.594-.281-1.219-.281-1.343 0-2.031 1.078-.688 1.062-.688 3.156 0 2.094.688 3.172.688 1.062 2.031 1.062.625 0 1.219-.265.594-.282 1.219-.86v2.72Z"/><text x="273.7" y="660.78" fill="#D9B8FF" font-family="Helvetica" font-size="17" textLength="48">quota</text><path d="M216.5 674.789h132" style="stroke:#000d19;stroke-width:1.5"/><text x="226.5" y="694" fill="#D9B8FF" font-family="sans-serif" font-size="11" font-weight="bold" textLength="37">quota</text><text x="263.5" y="694" fill="#D9B8FF" font-family="sans-serif" font-size="11" textLength="46">: double</text><text x="226.5" y="716.804" fill="#D9B8FF" font-family="sans-serif" font-size="11" font-weight="bold" textLength="39">usage</text><text x="265.5" y="716.804" fill="#D9B8FF" font-family="sans-serif" font-size="11" textLength="46">: double</text><text x="226.5" y="739.609" fill="#D9B8FF" font-family="sans-serif" font-size="11" font-weight="bold" textLength="71">quota_type</text><text x="297.5" y="739.609" fill="#D9B8FF" font-family="sans-serif" font-size="11" textLength="41">: string</text></a><a xlink:actuate="onRequest" xlink:href="#g" xlink:show="new" xlink:title="#digitalocean_droplet_size" xlink:type="simple" target="_top"><rect id="g" width="251" height="39.789" x="39" y="1316" fill="#3D176E" rx="2.5" ry="2.5" style="stroke:#000d19;stroke-width:1.5"/><circle cx="54" cy="1335.895" r="11" fill="#E98DF7" style="stroke:#000d19;stroke-width:1"/><path d="M56.969 1341.535q-.578.297-1.219.438-.64.156-1.344.156-2.5 0-3.828-1.64-1.312-1.657-1.312-4.782t1.312-4.781q1.328-1.656 3.828-1.656.703 0 1.344.156.656.156 1.219.453v2.719q-.625-.578-1.219-.844-.594-.281-1.219-.281-1.343 0-2.031 1.078-.688 1.062-.688 3.156 0 2.094.688 3.172.688 1.062 2.031 1.062.625 0 1.219-.265.594-.281 1.219-.86v2.72Z"/><text x="73" y="1341.78" fill="#D9B8FF" font-family="Helvetica" font-size="17" textLength="209">digitalocean_droplet_size</text></a><path fill="none" d="M143.09 303.1c-7.72 73.91-16.25 155.54-20.96 200.62M136.15 302.17l9.04-19.17 4.88 20.62-13.92-1.45zM227.01 301.83c17.7 40.86 34.51 79.68 44.15 101.92M220.5 304.42l-1.53-21.14 14.38 15.57-12.85 5.57zM280.78 932.38c-.5 27.9-1.2 66.3-1.82 100.52M273.79 932.01l7.36-19.87 6.64 20.12-14-.25zM282.11 771.27c-.19 36.53-.39 77.15-.51 100.44M275.11 771.21l7.1-19.96 6.9 20.03-14-.07zM279.94 464.25c.51 44.98 1.34 119.08 1.92 170.49M272.94 464.28l6.78-20.08 7.22 19.92-14 .16zM122.04 595.39c3.22 54.64 7.46 140.88 7.46 215.61v304c0 75.03 20.1 162.68 29.84 200.74M115.03 595.46l5.78-20.39 8.2 19.54-13.98.85zM227.2 1212.93c-19.89 38.73-40.83 79.49-52.77 102.74M221.02 1209.64l15.36-14.59-2.91 20.99-12.45-6.4z" style="stroke:#ffaf37;stroke-width:2"/></svg>
